Setup/v9/Assets/Themes/Kobe/Edit.svg

<svg width="20" height="20" viewBox="0 0 20 20" fill="none" xmlns="http://www.w3.org/2000/svg">
<g clip-path="url(#clip0_806_1095)">
<path d="M9 6H3C1.89543 6 1 6.89543 1 8V17C1 18.1046 1.89543 19 3 19H16C17.1046 19 18 18.1046 18 17V9.5" stroke="#fff" stroke-linecap="round" stroke-linejoin="round"/>
<path d="M18.2021 2.18153L16.8192 1.21319C16.3667 0.896417 15.7432 1.00637 15.4264 1.45877L8.34346 11.5743C8.26396 11.6878 8.20893 11.8166 8.18187 11.9526L7.68685 14.4384C7.60953 14.8267 7.99272 15.1465 8.36095 15.001L10.9647 13.9723C11.147 13.9003 11.3041 13.7764 11.4164 13.6159L18.4476 3.57425C18.7644 3.12185 18.6545 2.4983 18.2021 2.18153Z" stroke="#fff" stroke-linejoin="round"/>
<path d="M17.5973 4.7887L14.576 2.67322L8.07975 11.9509C7.98833 12.0815 7.92944 12.232 7.908 12.3899L7.61325 14.5606C7.56404 14.923 7.9078 15.2138 8.25704 15.1053L10.6354 14.3665C10.847 14.3007 11.0308 14.1666 11.1579 13.9851L17.5973 4.7887Z" fill="#fff" fill-opacity="0.15" stroke="#fff" stroke-linejoin="round"/>
</g>
<defs>
<clipPath id="clip0_806_1095">
<rect width="20" height="20" fill="white"/>
</clipPath>
</defs>
</svg>

<svg xmlns="http://www.w3.org/2000/svg" width="20" height="20" fill="none"><g stroke="#ddd" stroke-linejoin="round"><path stroke-linecap="round" d="M9 6H3a2 2 0 0 0-2 2v9a2 2 0 0 0 2 2h13a2 2 0 0 0 2-2V9.5"/><path d="m18.202 2.182-1.383-.969a1 1 0 0 0-1.393.246L8.343 11.574a1 1 0 0 0-.161.379l-.495 2.485a.5.5 0 0 0 .674.563l2.604-1.029a1 1 0 0 0 .451-.356l7.032-10.042a1 1 0 0 0-.246-1.392Z"/><path fill="#fff" fill-opacity=".15" d="m17.597 4.789-3.021-2.116-6.496 9.278a1 1 0 0 0-.172.439l-.295 2.17a.5.5 0 0 0 .644.545l2.378-.739a1 1 0 0 0 .523-.38l6.44-9.197Z"/></g></svg>
